X: 1
T: the Handsome Ploughboy
%T: the Handsome Plowboy
C: Trad
O: England, Scotland
M: C|
L: 1/8
R: hornpipe, reel
Z: 2006 John Chambers <jc:trillian.mit.edu>
K: A
E2 \
| "A"A2A2 AcBA | "E7"G2B2 BdcB | "A"A2A2 Acea | "E7"gfed cBAG |
y2 \
| "A"A2A2 AcBA | "E7"G2B2 BdcB | "A"Acea "E7"gfed | "A"c2A2 A2 :|
|: e2 \
| "A"aece aece | "D"afdf afdf | "E7"bgeg bgeg | "A"agfe "E7"dcBA |
y3 \
| "A"ceAe ceAe | "Bm"dfBf dfBf | "E7"cegf edcB | "A"A2c2 A2y2 :|
